chevron-right-box-outline.svg

<svg fill="currentColor" viewBox="0 0 24 24"><path d="M19 3H5a2 2 0 0 0-2 2v14a2 2 0 0 0 2 2h14c1.11 0 2-.89 2-2V5a2 2 0 0 0-2-2m0 16H5V5h14zM8.29 16.59 12.88 12 8.29 7.41 9.71 6l6 6-6 6z"/></svg>

<svg  viewBox="0 0 24 24" fill="currentColor"><path  d="M19,3H5A2,2 0 0,0 3,5V19C3,20.11 3.9,21 5,21H19C20.11,21 21,20.11 21,19V5A2,2 0 0,0 19,3M19,19H5V5H19V19M8.29,16.59L12.88,12L8.29,7.41L9.71,6L15.71,12L9.71,18L8.29,16.59Z"/></svg>
